X:1
T:Lady Peel
T:Lady Peel
T:William Marshall
C:William Marshall
%%score ( 1 2 ) ( 3 4 )
L:1/8
M:4/4
K:Eb
V:1 treble 
V:2 treble 
V:3 bass 
V:4 bass 
V:1
 B, | E3/2{FEDE}F E/D/{D}C/ B,/ CFF>G | EBGe Bgeb | E3/2{FEDE}F E/D/{D}C/ B,/ CFF>G | %4
 B,>E E/D/{D}C/B,/ [G,E]2 [G,E] :| B | (e>f) (e/d/)(c/B/) cf-f>g | egce BeGE | %8
 e3/2{g}f e/d/{d}c/ B/ cf-f>g | e/>d/{d}c/B/ c"^tr"d [Ge]2 [Ge]B | (e>f) e/>d/{d}c/B/ cff>g | %11
 egce BeG>E | AcGB C[CF][DF]G | C>E E/D/{D}C/B,/ [G,B,E]2 [G,B,E] |] %14
V:2
 x | G,2 B,2 C2 D2 x/ | G,2 E2 G2 B2 | G,2 B,2 C2 D2 x/ | G,2 A,2 x3 :| x | x8 | x8 | x4 c2 x2 x/ | %9
 x8 | x8 | x8 | E2 E2 x4 | A,2 x4 x |] %14
V:3
 z | E,,E, G,,G, A,,A, B,,B, x/ | E,,/E,/E,,/E,/ E,,/E,/E,,/E,/ E,,/E,/E,,/E,/ E,,/E,/E,,/E,/ | %3
 E,,E, G,,G, A,,A, B,,B, x/ | B,,2 B,,,B,, E,,E,E,, :| z | %6
 E,/E/E,/E/ B,/E/G,/E/ A,/F/C/F/ B,/F/D/F/ | G,/E/B,/E/ A,/E/C/E/ G,/E/B,/E/ E,/B,/G,/B,/ | %8
 E,/E/G,/E/ B,/E/G,/E/ A,/F/C/F/ B,/F/D/F/ x/ | B,/A/F/A/ B,/A/F/A/ E,/G,/B,/E/ E, z | %10
 G,/E,/B,/E,/ G,/E,/B,/E,/ A,/F,/C,/F,/ B,/F,/B,/A,/ | %11
 G,/E/B,/E/ A,/E/C/E/ G,/E/B,/E/ E,/G,/B,/_D/ | CA, B,G, [A,,A,][=A,,=A,] [B,,B,]2 | %13
 [A,,,A,,]2 [G,,,B,,F,A,]2 E,,E,E,, |] %14
V:4
 x | x17/2 | x8 | x17/2 | x7 :| x | E,4 x4 | x8 | E,4 x4 x/ | x8 | x8 | x8 | E,2 E,2 x4 | x7 |] %14

